!!!COM: Palestrina, Giovanni Perluigi da
!!!OPR: Missa Veni Sancte Spiritus
!!!OMD: Sanctus
!!!OTL: Hosanna
**kern	**kern	**kern	**kern	**kern
*Ibass	*Itenor	*Itenor	*Icalto	*Icant
!Bassus	!Tenor 2	!Tenor 1	!Altus	!Cantus
*clefF4	*clefGv2	*clefGv2	*clefG2	*clefG2
*k[b-]	*k[b-]	*k[b-]	*k[b-]	*k[b-]
*G:dor	*G:dor	*G:dor	*G:dor	*G:dor
*M3/2	*M3/2	*M3/2	*M3/2	*M3/2
=64	=64	=64	=64	=64
1r	1r	1r	1a	1r
2r	2r	2r	2a	2r
=65	=65	=65	=65	=65
1r	1d	1r	2.d	1r
.	.	.	4e	.
2r	2d	2r	2f	2r
=66	=66	=66	=66	=66
1r	2.G	1r	1g	1dd
.	4A	.	.	.
2r	2B-	2r	2f	2dd
=67	=67	=67	=67	=67
1r	4c	1r	2e	2g
.	4B-	.	.	.
.	4A	.	4f	2a
.	4G	.	4g	.
2r	2F	2r	2a	2cc
=68	=68	=68	=68	=68
1r	2G	1d	1g	2b-
.	2d	.	.	1a
2r	2r	2d	2f#	.
=69	=69	=69	=69	=69
1G	2d	2.G	2g	1g
.	2d	.	2d	.
.	.	4A	.	.
2G	2G	2B-	2d	2r
=70	=70	=70	=70	=70
2.C	4g	1c	2.e	1gg
.	4f	.	.	.
.	4e	.	.	.
4D	4d	.	4f	.
2E	4c	2c	2g	2gg
.	4B-	.	.	.
=71	=71	=71	=71	=71
4F	2A	2c	4a	2cc
4E	.	.	4g	.
4D	2d	2F	4f	2dd
4C	.	.	4e	.
2BB-	2d	2B-	2d	2ff
=72	=72	=72	=72	=72
2C	4c	2G	1g	2ee-
.	4B-	.	.	.
1D	1A	1d	.	1dd
.	.	.	2f#	.
=73	=73	=73	=73	=73
1.G	2G	1.d	2.g	2.b-
.	2g	.	.	.
.	.	.	4a	4cc
.	2g	.	2b-	2dd
=74	=74	=74	=74	=74
1r	2c	1r	2cc	2ee-
.	2d	.	2b-	2.dd
2r	2f	2r	2a	.
.	.	.	.	4cc
=75	=75	=75	=75	=75
1r	2e-	2r	1g	2cc
.	1d	2a	.	1dd
2r	.	2a	4f	.
.	.	.	4e	.
=76	=76	=76	=76	=76
2r	2a	2.d	2.f	1dd
2d	2a	.	.	.
.	.	4e	4g	.
2d	[2d	2f	2a	2dd
=77	=77	=77	=77	=77
2G	2d]	2g	2b-	2dd
2A	2f	1c	2a	2.cc
2c	2e	.	2g	.
.	.	.	.	8b-
.	.	.	.	8a
=78	=78	=78	=78	=78
2B-	2.d	2d	1r	2g
1A	.	1e	.	1a
.	8c	.	.	.
.	8B	.	.	.
.	2c#	.	2r	.
=79	=79	=79	=79	=79
1D	1d	1f	1a	2r
.	.	.	.	2dd
2r	2r	2g	2b-	2ee-
=80	=80	=80	=80	=80
1r	2d	2f	2a	2dd
.	2e-	2.g	2g	2cc
2r	2d	.	2a	2dd
.	.	4f	.	.
=81	=81	=81	=81	=81
1r	2d	1f	2f	2b-
.	2c	.	1g	1cc
2r	2c	2e	.	.
=82	=82	=82	=82	=82
1A	1F	2.f	2f	4cc
.	.	.	.	4b-
.	.	.	2c	4a
.	.	4e	.	4g
2B-	2r	2d	2d	2f
=83	=83	=83	=83	=83
2A	1r	2c	2e	2a
2G	.	2d	2g	2.b-
2A	2r	[2c	2e	.
.	.	.	.	4a
=84	=84	=84	=84	=84
2F	1r	4c]	2f	1a
.	.	4d	.	.
1G	.	1B-	2.d	.
.	2r	.	.	2g
.	.	.	4e	.
=85	=85	=85	=85	=85
1F	1A	2c	2f	[1.a
.	.	2r	2c	.
2r	2c	2A	2e	.
=86	=86	=86	=86	=86
1D	1d	2A	2.f	1.a]
.	.	2.f	.	.
.	.	.	4g	.
2F	2A	.	2a	.
.	.	4e	.	.
=87	=87	=87	=87	=87
1G	2.B-	4d	2r	1r
.	.	4c	.	.
.	.	2B-	2d	.
.	4c	.	.	.
2D	[2d	2A	[2f	2r
=88	=88	=88	=88	=88
2F	2d]	1d	2f]	1r
1E	1G	.	1g	.
.	.	2c#	.	2r
=89	=89	=89	=89	=89
1D	1.A	4d	2.f	1a
.	.	4e	.	.
.	.	4f	.	.
.	.	4d	4g	.
2r	.	2e	2a	2cc
=90	=90	=90	=90	=90
2G	1r	1d	4b-	1dd
.	.	.	4a	.
2B-	.	.	4g	.
.	.	.	4f	.
2c	2r	2r	4e	2g
.	.	.	4f	.
=91	=91	=91	=91	=91
2G	1d	1r	2g	2b-
2.d	.	.	2.f	1a
.	2f	2r	.	.
4c	.	.	4e-	.
=92	=92	=92	=92	=92
4B-	1g	2G	2d	1.g
4A	.	.	.	.
1G	.	4G	2B-	.
.	.	4A	.	.
.	2d	4B-	2b-	.
.	.	4c	.	.
=93	=93	=93	=93	=93
2D	2f	1d	2a	1r
1A	1e	.	1a	.
.	.	2c#	.	2r
=94	=94	=94	=94	=94
1D	1d	1d	2.f	1a
.	.	.	4g	.
2A	2e	2r	[2a	2cc
=95	=95	=95	=95	=95
1D	1f	1A	2a]	1dd
.	.	.	2d	.
2C	2e	2c	2e	2g
=96	=96	=96	=96	=96
2G	2d	1d	2g	2b-
2F#	2A	.	2a	2a
[2G	[2d	2G	2b-	[2g
=97	=97	=97	=97	=97
2G]	1.d]	2B-	2.g	2g]
1D	.	1A	.	1a
.	.	.	8f	.
.	.	.	8e	.
.	.	.	2f#	.
=98	=98	=98	=98	=98
[1.G	[1.d	[1.G	[1.g	[1.b
=99	=99	=99	=99	=99
1.G]	1.d]	1.G]	1.g]	1.b]
==	==	==	==	==
*-	*-	*-	*-	*-
!!!CDT: 1525/^1526/-1594/2/2
!!!OCY: Italia
!!!AGN: Mass (Parody)
!!!AST: renaissance, vocal
!!!ASW: Motet (unidentified (Pal?))
!!!PWK: Masses, Book 4
!!!RNB: Cadence finals: D
!!!YOR: Le Opere Complete, v. 10, p. 115
!!!YOO: Rome, Italy: Fratelli Scalera
!!!END: 1992//
!!!EED: John Miller
!!!YEC: Copyright 2000, John Miller
!!!YEN: United States of America
!!!YEM: Rights to all derivative electronic formats reserved.
!!!YEM: Refer to licensing agreement for further details.
!!!YEM: This file must be accompanied by the licensing agreement.
!!!YEM: A copy of the licensing agreement may be found at http://www.music-cog.ohio-state.edu/HumdrumDatabases/Palestrina/license.txt
!!!EMD: converted to Humdrum by Bret Aarden
